**kern	**kern	**dynam
*part1	*part1	*part1
*staff2	*staff1	*
*I"Piano	*	*
*clefF4	*clefG2	*
*k[b-e-]	*k[b-e-]	*
=1	=1	=1
!	!LO:TX:a:i:t=espr.	!
([2.BB- [2.E- [2.B-	(2.d [2.g 2.dd	p
=	=	=
4.BB-_ 4.E-_ 4.B-_	[4.c 4.g_ [4.cc	.
4BB-] 4E-] 4B-]	4c] 4g] 4cc]	>
8BB-) 8D	8B-) 8f 8b-	.
=	=	=
8r	(2.d [2.g 2.dd	] p
(16BBB-LL	.	.
16EE-	.	.
16BB-	.	.
[16E-JJ	.	.
(4.E-_) [4.B-	.	.
=	=	=
*^	*	*
4.B-_	4.E-_	[4.c 4.g_ [4.cc	.
4B-]	4E-]	4c] 4g] 4cc]	>
8r	8D)	8B-) 8f 8b-	.
=	=	=	=
*	*	*^	*
!	!	!LO:TX:b:i:t=dim.	!	!
(4.E-	2.BB-	(4g	4.A 4.c	]
.	.	8f	.	.
4.D)	.	[4.B- [4.d	[4.F	.
*v	*v	*	*	*
*	*v	*v	*
=	=	=
(16BBB-LL	8F]) 8B-] 8d]	.
16FF	.	.
16BB-	4ryy	.
16D>	.	.
16F>	.	.
16B-JJ>	.	.
4r	4.d)	.
8r	.	.
=	=	=
*	*^	*
!	!	!	!LO:DY:a
[2.BB- [2.E-	[2.g	[2.A [2.c	pp
=	=	=	=
2.BB-] 2.E-]	(4.g]	2.A] 2.c]	.
.	4.f)	.	.
*	*v	*v	*
=	=	=
2.BBB-; 2.FF 2.BB-	2.D; 2.F 2.B- 2.d	.
==	==	==
*-	*-	*-
!!!system-decoration: {(s1,s2)}
!!!RDF**kern: > = above
